svg/fluentui-system-icons/ic_fluent_subtract_square_multiple_16_filled.svg

<svg width="16" height="16" viewBox="0 0 16 16" fill="none" xmlns="http://www.w3.org/2000/svg">
<path d="M4 2C2.89543 2 2 2.89543 2 4V9.99999C2 11.1046 2.89543 12 4 12H9.99999C11.1046 12 12 11.1046 12 9.99999V4C12 2.89543 11.1046 2 9.99999 2H4ZM4.5 6.49999H9.49999C9.77613 6.49999 9.99999 6.72385 9.99999 6.99999C9.99999 7.27614 9.77613 7.49999 9.49999 7.49999H4.5C4.22386 7.49999 4 7.27614 4 6.99999C4 6.72385 4.22386 6.49999 4.5 6.49999ZM13 10.5C13 11.8807 11.8807 13 10.5 13H3.26758C3.61339 13.5978 4.25973 14 5.00001 14H10.5C12.433 14 14 12.433 14 10.5V5.00001C14 4.25973 13.5978 3.61339 13 3.26758V10.5Z" fill="#212121"/>
</svg>

<svg xmlns="http://www.w3.org/2000/svg" width="16" height="16"><path d="M4 2a2 2 0 0 0-2 2v6a2 2 0 0 0 2 2h6a2 2 0 0 0 2-2V4a2 2 0 0 0-2-2H4Zm.5 4.5h5a.5.5 0 0 1 0 1h-5a.5.5 0 1 1 0-1Zm8.5 4a2.5 2.5 0 0 1-2.5 2.5H3.268A2 2 0 0 0 5 14h5.5a3.5 3.5 0 0 0 3.5-3.5V5a2 2 0 0 0-1-1.732V10.5Z"/></svg>
